packages/react-icons/icons/settings.svg

<svg width="24" height="24" viewBox="0 0 24 24" xmlns="http://www.w3.org/2000/svg"><path fill-rule="evenodd" clip-rule="evenodd" d="M15.6708 12C15.6708 13.9841 14.0272 15.5925 11.9997 15.5925C9.97227 15.5925 8.32869 13.9841 8.32869 12C8.32869 10.0159 9.97227 8.40749 11.9997 8.40749C14.0272 8.40749 15.6708 10.0159 15.6708 12ZM13.8708 12C13.8708 12.9535 13.07 13.7925 11.9997 13.7925C10.9295 13.7925 10.1287 12.9535 10.1287 12C10.1287 11.0465 10.9295 10.2075 11.9997 10.2075C13.07 10.2075 13.8708 11.0465 13.8708 12Z"/><path fill-rule="evenodd" clip-rule="evenodd" d="M9.9623 2C9.41001 2 8.9623 2.44772 8.9623 3V5.86771L8.08932 6.36094L5.52479 4.91198C5.0503 4.64389 4.44851 4.8051 4.17159 5.27449L2.14768 8.70502C1.86333 9.187 2.02983 9.80851 2.51705 10.0838L5.05319 11.5167L5.05319 12.4944L2.51755 13.927C2.03033 14.2023 1.86383 14.8238 2.14818 15.3058L4.17209 18.7363C4.44901 19.2057 5.05079 19.3669 5.52528 19.0988L8.09896 17.6447L8.9623 18.1325V21C8.9623 21.5523 9.41001 22 9.9623 22H14.043C14.5953 22 15.043 21.5523 15.043 21V18.1294L15.9008 17.6447L18.4745 19.0988C18.949 19.3669 19.5508 19.2057 19.8277 18.7363L21.8516 15.3058C22.1359 14.8238 21.9694 14.2023 21.4822 13.927L18.9466 12.4944V11.5155L21.4823 10.0828C21.9695 9.80754 22.136 9.18603 21.8516 8.70404L19.8277 5.27351C19.5508 4.80413 18.949 4.64291 18.4745 4.911L15.9067 6.36184L15.043 5.87385V3C15.043 2.44772 14.5953 2 14.043 2H9.9623ZM10.8013 5.97318L10.8052 5.97989V6.90868L8.79994 8.04167L8.79821 8.0446L8.09563 8.44156C8.09509 8.44187 8.09443 8.44187 8.0939 8.44156C8.0936 8.44139 8.09423 8.44154 8.0939 8.44156C8.09363 8.44158 8.0924 8.44143 8.09216 8.44156L8.09101 8.44221C8.08976 8.44292 8.08823 8.44292 8.08698 8.44221L7.28628 7.98982L7.28224 7.98298L5.3434 6.88752L5.34138 6.89095L5.33948 6.88987L4.14024 8.92258L4.14202 8.92387L6.05411 10.0042H6.07833L6.89215 10.464V10.4774L6.89548 10.4793V13.5397L6.08648 13.9968H6.07197L4.14252 15.0869L4.14453 15.0904L4.14263 15.0914L5.34187 17.1241L5.34389 17.1233L7.25708 16.0423L7.26511 16.0287L8.0911 15.562L10.0943 16.6939H10.0978L10.8013 17.0913V17.0933L10.8053 17.0956L10.8054 17.0976V18.0118L10.8013 18.0188V20.2004H10.8053V20.2025H13.2038L13.204 20.2004V18.0291L13.2038 18.0277L13.1998 18.021V17.0946L13.2038 17.0923V17.0891L15.9106 15.5597L16.7225 16.0184L16.7333 16.0368L16.7344 16.0376L18.6579 17.1241L19.8571 15.0914L19.8552 15.0904L19.8572 15.0869L17.9184 13.9915H17.9103L17.1076 13.5379V13.5334L17.1059 13.5324V13.529L17.1038 13.5279V10.4783L17.1076 10.4762V10.475L17.9409 10.0042H17.9435L19.8591 8.92161L18.6598 6.88889L18.6579 6.88997L18.6559 6.88655L16.7169 7.98228L16.713 7.98884L15.9103 8.44238L15.9063 8.4401L15.9045 8.44107L15.2011 8.04362L15.1994 8.04069L13.1998 6.91091V5.96929L13.204 5.96209L13.2038 3.79748H10.8053V3.79963H10.8013V5.97318Z"/></svg>

<svg xmlns="http://www.w3.org/2000/svg" width="24" height="24"><path fill-rule="evenodd" d="M15.67 12c0 1.984-1.643 3.592-3.67 3.592-2.028 0-3.671-1.608-3.671-3.592s1.643-3.593 3.67-3.593c2.028 0 3.672 1.609 3.672 3.593Zm-1.8 0c0 .954-.8 1.793-1.87 1.793s-1.871-.84-1.871-1.793c0-.954.8-1.793 1.87-1.793 1.071 0 1.872.84 1.872 1.793Z" clip-rule="evenodd"/><path fill-rule="evenodd" d="M9.962 2a1 1 0 0 0-1 1v2.868l-.873.493-2.564-1.449a1 1 0 0 0-1.353.362L2.148 8.705a1 1 0 0 0 .369 1.379l2.536 1.433v.977l-2.535 1.433a1 1 0 0 0-.37 1.379l2.024 3.43a1 1 0 0 0 1.353.363L8.1 17.645l.863.488V21a1 1 0 0 0 1 1h4.081a1 1 0 0 0 1-1v-2.87l.858-.485 2.573 1.454a1 1 0 0 0 1.354-.363l2.024-3.43a1 1 0 0 0-.37-1.379l-2.535-1.433v-.979l2.535-1.432a1 1 0 0 0 .37-1.379l-2.024-3.43a1 1 0 0 0-1.354-.363l-2.567 1.45-.864-.487V3a1 1 0 0 0-1-1h-4.08Zm.84 3.973.003.007v.929L8.8 8.042l-.002.003-.702.397H8.087l-.8-.452-.005-.007-1.939-1.095-.002.003-.002-.001L4.14 8.923h.002l1.912 1.081h.024l.814.46v.013l.003.002v3.06l-.809.458h-.014l-1.93 1.09.003.003-.002.001 1.199 2.033h.002l1.913-1.082.008-.013.826-.467 2.003 1.132h.004l.703.397v.002l.004.003v.916l-.004.007V20.2h.004v.003h2.399v-2.175l-.004-.007v-.926l.004-.003v-.003l2.707-1.53.812.46.01.018h.001l1.924 1.087 1.2-2.033h-.003l.002-.004-1.939-1.095h-.008l-.802-.454v-.005h-.002v-.004l-.002-.001v-3.05l.004-.002v-.001l.833-.47h.003l1.915-1.083-1.2-2.033-.001.001-.002-.003-1.94 1.095-.003.007-.803.453-.004-.002-.002.001-.703-.397-.002-.003-2-1.13v-.942l.005-.007V3.797h-2.399V3.8h-.004v2.173Z" clip-rule="evenodd"/></svg>
